src/assets/icons/printer.svg

<svg viewBox="0 0 56 56" fill="none" xmlns="http://www.w3.org/2000/svg">
<path d="M41.4167 25.6667C39.8057 25.6667 38.5 26.9724 38.5 28.5833C38.5 30.1943 39.8057 31.5 41.4167 31.5C43.0276 31.5 44.3333 30.1943 44.3333 28.5833C44.3333 26.9724 43.0276 25.6667 41.4167 25.6667Z" fill="url(#paint0_linear_2420_219)"/>
<path fill-rule="evenodd" clip-rule="evenodd" d="M9.73733 18.9358L14.5833 18.3972V9.13039C14.5833 7.62938 15.7268 6.37551 17.2214 6.23754C24.392 5.57565 31.608 5.57565 38.7786 6.23754C40.2731 6.37551 41.4167 7.62938 41.4167 9.13039V18.3971L46.2628 18.9358C48.0508 19.1345 49.5259 20.4258 49.9595 22.1719C51.2797 27.4892 51.2797 33.0486 49.9595 38.3658L49.5318 40.0883C49.3381 40.8688 48.6374 41.4167 47.8333 41.4167H41.4167V46.8603C41.4167 48.3117 40.3167 49.5271 38.8726 49.6715C31.6423 50.3946 24.3577 50.3946 17.1274 49.6715C15.6832 49.5271 14.5833 48.3117 14.5833 46.8603V41.4167H8.16674C7.36265 41.4167 6.66204 40.8688 6.4683 40.0883L6.04063 38.3658C4.72043 33.0486 4.72043 27.4892 6.04063 22.1719C6.47416 20.4258 7.94925 19.1345 9.73733 18.9358ZM37.9167 18.059C31.3166 17.5178 24.6834 17.5178 18.0833 18.059V9.67417C24.6818 9.09679 31.3182 9.09679 37.9167 9.67417V18.059ZM37.9167 38.5037C37.9125 38.1353 37.6763 37.818 37.341 37.6997C31.126 37.1485 24.8743 37.1485 18.6591 37.6994C18.3208 37.8191 18.0834 38.1411 18.0834 38.514V39.6667L18.0833 39.6814V46.2478C24.6799 46.869 31.3201 46.869 37.9167 46.2478V38.5037ZM46.4648 37.9167H41.4167V37.1397C41.4167 35.6883 40.3167 34.4729 38.8726 34.3285C38.5567 34.297 38.2405 34.2666 37.9244 34.2379C37.7918 34.2111 37.6572 34.1901 37.5202 34.1754C31.1918 33.4936 24.8082 33.4936 18.4798 34.1754C18.343 34.1901 18.2083 34.2111 18.0758 34.2379C17.7596 34.2666 17.4434 34.297 17.1274 34.3285C15.6832 34.4729 14.5833 35.6883 14.5833 37.1397V37.9167H9.53535L9.43749 37.5226C8.2548 32.7591 8.2548 27.7788 9.43749 23.0153C9.51799 22.691 9.79193 22.4512 10.124 22.4143L14.9827 21.8743C23.6343 20.9127 32.3659 20.9127 41.0174 21.8743L45.8761 22.4143C46.2082 22.4512 46.4821 22.691 46.5626 23.0153C47.7454 27.7788 47.7454 32.7591 46.5626 37.5226L46.4648 37.9167Z" fill="url(#paint1_linear_2420_219)"/>
<defs>
<linearGradient id="paint0_linear_2420_219" x1="25.6892" y1="5.74112" x2="25.6892" y2="50.2139" gradientUnits="userSpaceOnUse">
<stop offset="0.0001" stop-color="#ED0189"/>
<stop offset="1" stop-color="#F3293B"/>
</linearGradient>
<linearGradient id="paint1_linear_2420_219" x1="25.6892" y1="5.74112" x2="25.6892" y2="50.2139" gradientUnits="userSpaceOnUse">
<stop offset="0.0001" stop-color="#ED0189"/>
<stop offset="1" stop-color="#F3293B"/>
</linearGradient>
</defs>
</svg>

<svg xmlns="http://www.w3.org/2000/svg" fill="none" viewBox="0 0 56 56">
  <path fill="currentColor" d="M41.417 25.667a2.916 2.916 0 1 0 0 5.833 2.916 2.916 0 0 0 0-5.833Z"/>
  <path fill="currentColor" fill-rule="evenodd" d="m9.737 18.936 4.846-.539V9.13a2.905 2.905 0 0 1 2.638-2.892c7.171-.662 14.387-.662 21.558 0a2.905 2.905 0 0 1 2.638 2.892v9.267l4.846.539a4.298 4.298 0 0 1 3.697 3.236 33.601 33.601 0 0 1 0 16.194l-.428 1.722a1.75 1.75 0 0 1-1.699 1.329h-6.416v5.443c0 1.452-1.1 2.667-2.544 2.812-7.23.723-14.515.723-21.746 0a2.825 2.825 0 0 1-2.544-2.812v-5.443H8.167a1.75 1.75 0 0 1-1.699-1.329l-.427-1.722a33.601 33.601 0 0 1 0-16.194 4.298 4.298 0 0 1 3.696-3.236Zm28.18-.877c-6.6-.541-13.234-.541-19.834 0V9.674a113.765 113.765 0 0 1 19.834 0v8.385Zm0 20.445a.864.864 0 0 0-.576-.804 105.767 105.767 0 0 0-18.682 0 .864.864 0 0 0-.576.814v7.734c6.597.621 13.237.621 19.834 0v-7.744Zm8.548-.587h-5.048v-.777c0-1.452-1.1-2.667-2.544-2.812-.316-.031-.633-.061-.949-.09a4.417 4.417 0 0 0-.404-.063 88.878 88.878 0 0 0-19.04 0 4.418 4.418 0 0 0-.404.063c-.316.029-.633.059-.949.09a2.825 2.825 0 0 0-2.544 2.812v.777H9.535l-.098-.394a30.102 30.102 0 0 1 0-14.508.798.798 0 0 1 .687-.6l4.859-.54a117.84 117.84 0 0 1 26.034 0l4.86.54a.798.798 0 0 1 .686.6 30.1 30.1 0 0 1 0 14.508l-.098.394Z" clip-rule="evenodd"/>
</svg>
